X:69
T: Fut a bácsú ló után
O: Bogdánfalva (Bákó), 1929
Q: 1/4=160
M:2/4
L:1/4
K:F
D/F/A/A/ | A/A/A | 
G/G/c/B/ | A A | 
A (G/E/)| G (F/E/) | 
D/F/A/A/ | D D/ z/ | 

